X: 39770
T: Thank God We're Surrounded By Water
R: jig
M: 6/8
K: Gmajor
|:D2G GFG|ABc d2g|f/g/af ded|cAG FEF|
D2G GFG|ABc deg|fed cAF|1 AGF G2E:|2 AGF GBd||
|:~g3 def|gfg a2g|f/g/af ded|cAG FGA|
[1 d2g gfg|aeg fag|fed cAF|AGF GBd:|
[2 ~B3 BAG|ABc d2g|fed cAF|AGF G2E||

